X:1
T:Come, Sing the Gospel’s Joyful Sound
T:Philip Paul Bliss, 1876
T:Come, Sing the Gospel’s Joyful Sound 
T:Public Domain
T:Public Domain
C:Philip Paul Bliss, 1876
Z:Public Domain
%%score ( 1 2 ) ( 3 4 )
L:1/8
M:4/4
K:C
V:1 treble 
V:2 treble 
V:3 bass 
V:4 bass 
V:1
 [EG]2 | [Ec]2 [Ec]2 [FB]2 [Gc]2 | [Ad]2 [Ac]2 [GB]2 [FA]2 | [EG]2 G2 [FA]2 [FB]2 | [Ec]6 [EG]2 | %5
w: 1.~Come,|sing the Gos- pel’s|joy- ful sound, Sal-|va- tion full and|Pro- claim|
w: 2.~Ye|mourn- ing souls, a-|loud re- joice; Ye|blind, your Sav- ior|Ye pris-|
w: 3.~With|rap- ture swell the|song a- gain, Of|Je- sus’ dy- ing|’Tis peace|
 [Ec]2 [Ec]2 [FB]2 [Gc]2 | [Ad]2 [Ac]2 [GB]2 [FA]2 | [EG]2 G2 [FA]2 [FB]2 | [Ec]6 || %9
w: to all the world|a- round, The year|of ju- bi- lee!||
w: oners, sing with thank-|ful voice, The Lord|hath made you free!||
w: on earth, good will|to men, And praise|to God a- bove.||
"^Refrain" [Ec]2 | [Gd]4 [Gd]2 [Gd]2 | [Ge]4 [Ec]2 [Ec]2 | [GB]2 [GB]2 [Gc]2 [Ec]2 | [Gd]6 [Gd]2 | %14
w: |||||
w: |||||
w: |||||
 [Ge]4 [Fd]2 [Ec]2 | [Ac]4 [FA]2 [FA]2 | [EG]2 G2 [FA]2 [FB]2 | [Ec]6 |] %18
w: ||||
w: ||||
w: ||||
V:2
 x2 | x8 | x8 | x2 G2 x4 | x8 | x8 | x8 | x2 G2 x4 | x6 || x2 | x8 | x8 | x8 | x8 | x8 | x8 | %16
w: |||free;|||||||||||||
w: |||see!|||||||||||||
w: |||love;|||||||||||||
 x2 G2 x4 | x6 |] %18
w: ||
w: ||
w: ||
V:3
 [C,C]2 | [C,C]2 [C,G,]2 [D,G,]2 [E,C]2 | [F,C]2 [F,C]2 [F,C]2 [F,C]2 | [G,C]2 [E,C]2 [F,C]2 G,2 | %4
w: ~|~ ~ ~ ~|~ ~ ~ ~|~ ~ ~ ~|
 [C,G,]6 [C,C]2 | [C,C]2 [C,G,]2 [D,G,]2 [E,C]2 | [F,C]2 [F,C]2 [F,C]2 [F,C]2 | %7
w: ~ ~|~ ~ ~ ~|~ ~ ~ ~|
 [G,C]2 [E,C]2 [F,C]2 G,2 | [C,G,]6 || [C,C]2 | [G,B,]4 [G,B,]2 [G,B,]2 | C4 [C,G,]2 [C,C]2 | %12
w: ~ ~ ~ ~|va-|tion,|sal- va- tion,|The grace of|
 [G,D]2 [F,D]2 [E,C]2 [C,C]2 | [G,B,]6 [G,B,]2 | C4 [G,B,]2 [A,C]2 | [F,C]4 [F,C]2 [F,C]2 | %16
w: doth bring; Sal- va-|tion, sal-|va- tion, Thro’|our Lord and|
 [G,C]2 [E,C]2 [F,C]2 G,2 | [C,G,]4 x2 |] %18
w: king. * * *||
V:4
 x2 | x8 | x8 | x6 G,2 | x8 | x8 | x8 | x6 G,2 | x6 || x2 | x8 | C4 x4 | x8 | x8 | C4 x4 | x8 | %16
w: |||~||||Sal-||||God|||Christ||
 x6 G,2 | x6 |] %18
w: ||

